public/assets/images/bottom-faqs-third.svg

<svg width="1280" height="266" viewBox="0 0 1280 266" fill="none" xmlns="http://www.w3.org/2000/svg">
<path d="M0 121H1280V202.15C1280 202.15 935.5 276.269 627.5 264.793C319.5 253.316 0 202.15 0 202.15L0 121Z" fill="#F1F5FD"/>
<path d="M-17.8682 186.21C-35.1107 174.443 -34.3682 130.265 -13.1038 110.962C3.70556 95.6237 18.5762 109.476 43.6149 95.6031C74.3667 78.5304 68.9836 48.1217 97.4048 29.542C123.929 12.2422 160.62 11.2307 166.292 22.0069C172.212 33.2373 139.748 48.6584 115.575 98.163C98.6011 132.866 107.057 140.628 90.8255 157.515C70.8399 178.386 42.6455 182.474 6.55181 187.717C-8.05068 189.864 -13.3513 189.286 -17.8682 186.21Z" fill="#91A0D8" fill-opacity="0.27"/>
<path d="M70.2091 1.60639C52.3426 5.03058 36.2349 14.554 24.6612 28.5357C4.82713 53.2793 18.5743 70.1668 3.33645 103.612C-14.7792 143.367 -49.7683 153.615 -45.669 162.027C-41.1142 171.389 7.22874 169.141 28.7398 141.263C46.2551 118.582 29.5058 100.23 45.075 67.8162C64.5778 27.1748 109.857 16.5763 105.737 5.586C102.921 -1.87832 80.9336 -0.352478 70.2091 1.60639Z" fill="#9289FF" fill-opacity="0.4"/>
<path d="M-2.75684 171C-3.30831 171.004 -3.79589 170.642 -3.95213 170.113C-4.13887 169.452 -3.76306 168.764 -3.10719 168.565C42.6645 155.337 70.6921 135.836 80.1515 110.619C81.9337 105.561 83.2647 100.354 84.1289 95.0599C85.654 87.0944 87.2408 78.8401 93.0937 69.0793C103.707 51.4356 122.317 38.6413 148.428 31.0473C149.082 30.8615 149.763 31.2394 149.953 31.8934C150.138 32.5485 149.761 33.2307 149.108 33.4204C123.615 40.8287 105.479 53.2516 95.2164 70.3381C89.5696 79.7274 88.1064 87.4039 86.5608 95.5345C85.6644 100.964 84.285 106.302 82.439 111.486C72.6912 137.487 44.1277 157.483 -2.4477 170.959L-2.75684 171Z" fill="white"/>
<path d="M36.5644 148.17C-8.87687 164.294 -35.7285 173.898 -34.985 184.12C-33.8696 197.919 18.3879 216.799 52.1383 198.29C72.6488 187.04 72.6901 169.497 107.164 143.749C124.534 130.771 135.895 126.761 134.945 124.19C132.941 118.781 80.126 132.684 36.5644 148.17Z" fill="#9289FF" fill-opacity="0.4"/>
<path d="M8.56245 192.983C-1.12423 192.876 -10.7538 191.488 -20.074 188.856C-20.7322 188.665 -21.1242 187.993 -20.9643 187.329C-20.8773 187.011 -20.6666 186.74 -20.379 186.578C-20.0914 186.415 -19.7506 186.373 -19.4321 186.462C3.55159 192.653 22.5183 191.848 36.9504 183.924C44.4046 179.796 49.167 174.781 54.6748 168.9C61.581 161.145 69.4025 154.25 77.969 148.366C88.2794 141.385 99.5313 135.896 111.389 132.063C111.699 131.96 112.038 131.984 112.33 132.131C112.622 132.279 112.842 132.537 112.941 132.848C113.146 133.491 112.796 134.179 112.155 134.395C100.524 138.168 89.4827 143.552 79.3563 150.389C70.9433 156.175 63.2611 162.952 56.4762 170.572C50.8234 176.597 45.9368 181.798 38.1514 186.09C29.0354 190.854 18.8526 193.226 8.56245 192.983ZM-32.3767 158C-32.6535 157.994 -32.8952 157.812 -32.9755 157.548C-33.0693 157.224 -32.8855 156.886 -32.5625 156.787C-14.536 151.604 -0.845734 142.823 8.15721 130.69C17.1601 118.556 18.4817 107.492 20.1955 95.482C21.035 87.8747 22.5905 80.3628 24.8416 73.0455C33.1011 48.2028 55.0923 27.0207 90.1129 10.0545C90.4214 9.91877 90.7827 10.0447 90.9389 10.3424C91.0867 10.6491 90.9574 11.0171 90.6498 11.165C55.9595 27.9667 34.1955 48.9226 26.0185 73.4362C23.7853 80.6788 22.2436 88.1153 21.4138 95.6465C19.7206 107.821 18.11 119.338 9.14836 131.409C0.186714 143.481 -13.9165 152.715 -32.1496 157.979L-32.3767 158Z" fill="white"/>
<path d="M62.6157 26.9852C62.5263 27.0049 62.4338 27.0049 62.3445 26.9852C62.1947 26.9118 62.0809 26.7785 62.0296 26.6163C61.9784 26.4542 61.9941 26.2776 62.0732 26.1277L68.8124 12.3649C68.9709 12.0427 69.3507 11.9095 69.6679 12.0648C69.965 12.2423 70.0824 12.6227 69.9391 12.9437L63.179 26.7065C63.0531 26.896 62.8384 27.0022 62.6157 26.9852ZM50.5992 37C50.3002 37.0033 50.0456 36.7764 50.0054 36.4708C49.9653 36.1651 50.1521 35.8765 50.4411 35.7976L64.2711 32.0274C64.4206 31.9778 64.5836 31.9961 64.7193 32.0777C64.855 32.1594 64.9506 32.2967 64.9823 32.4554C65.0594 32.7804 64.8775 33.1111 64.5674 33.2094L50.7375 36.9796L50.5992 37ZM42.6689 44H42.4912C42.32 43.9556 42.1745 43.8482 42.0869 43.7016C41.9993 43.5549 41.9768 43.3812 42.0245 43.2188L48.6912 19.4864C48.7331 19.3199 48.8441 19.1765 48.999 19.089C49.1539 19.0015 49.3395 18.9773 49.5135 19.0219C49.8622 19.1238 50.0669 19.4664 49.9801 19.8031L43.3134 43.5566C43.2192 43.8193 42.961 43.9969 42.6689 44ZM35.6266 55.9995C35.3855 56.0097 35.1631 55.8752 35.0685 55.662C34.9914 55.5208 34.9788 55.3552 35.0337 55.2047C35.0885 55.0543 35.2059 54.9324 35.3579 54.8681L48.1119 49.0526C48.4207 48.9216 48.7824 49.0431 48.9388 49.3304C49.0868 49.6264 48.9573 49.9816 48.6494 50.1244L35.8746 55.9399L35.6266 55.9995ZM28.4427 66.9794C28.1715 66.972 27.9454 66.7449 27.9093 66.4438L25.0033 42.6896C24.9708 42.3549 25.1834 42.0527 25.4815 42.0097C25.626 41.9801 25.775 42.0186 25.8934 42.1161C26.0118 42.2136 26.089 42.3614 26.1068 42.5248L28.9945 66.2995C29.0153 66.4637 28.9765 66.6304 28.8865 66.7621C28.7966 66.8938 28.6632 66.9795 28.5163 67L28.4427 66.9794ZM23.6124 79C23.4127 78.9987 23.2268 78.8987 23.1167 78.7332C23.0203 78.6 22.9813 78.4341 23.0084 78.2723C23.0356 78.1104 23.1266 77.9661 23.2613 77.8712L36.0245 69.1075C36.3096 68.9148 36.698 68.9883 36.8919 69.2716C37.0858 69.555 37.0118 69.9409 36.7267 70.1336L23.9635 78.8769C23.8641 78.9567 23.7401 79.0001 23.6124 79ZM20.4102 95.9989C20.1638 95.9997 19.9421 95.8384 19.8518 95.5925L15.0852 82.9718C14.9635 82.7541 14.9728 82.4799 15.1091 82.2723C15.2454 82.0647 15.4829 81.9628 15.715 82.0124C15.9472 82.0619 16.1303 82.2535 16.1821 82.5012L20.9487 95.1219C21.0142 95.2774 21.0171 95.4549 20.9567 95.6128C20.8964 95.7706 20.778 95.8948 20.6296 95.9561C20.5609 95.9895 20.4855 96.0042 20.4102 95.9989ZM19.5882 102.999C19.3902 103.001 19.2043 102.906 19.0922 102.745C18.9184 102.468 18.9972 102.105 19.2707 101.922L33.1601 93.052C33.4293 92.9322 33.7469 93.0253 33.9061 93.2708C34.0653 93.5163 34.018 93.8399 33.795 94.031L19.9057 102.901C19.8152 102.971 19.7025 103.005 19.5882 102.999ZM15.3861 120C15.088 119.998 14.8302 119.796 14.7629 119.511L12.0415 105.831C11.952 105.603 12.01 105.344 12.189 105.173C12.368 105.002 12.6334 104.953 12.8636 105.047C13.0939 105.142 13.2445 105.362 13.2464 105.607L15.9885 119.266C16.0528 119.592 15.8408 119.908 15.5107 119.98L15.3861 120ZM10.615 128.998C10.3871 128.993 10.1784 128.867 10.0644 128.665C9.91547 128.36 10.0334 127.99 10.3295 127.833L25.1154 120.073C25.258 119.994 25.426 119.978 25.5803 120.03C25.7345 120.081 25.8614 120.194 25.9312 120.343C26.0834 120.643 25.975 121.011 25.6865 121.176L10.9618 128.936C10.8531 128.986 10.7339 129.007 10.615 128.998Z" fill="white"/>
</svg>

<svg xmlns="http://www.w3.org/2000/svg" width="1280" height="266" fill="none"><path fill="#F1F5FD" d="M0 121h1280v81.15s-344.5 74.119-652.5 62.643C319.5 253.316 0 202.15 0 202.15V121Z"/><path fill="#91A0D8" fill-opacity=".27" d="M-17.868 186.21c-17.243-11.767-16.5-55.945 4.764-75.248 16.81-15.338 31.68-1.486 56.719-15.359 30.752-17.073 25.369-47.481 53.79-66.061 26.524-17.3 63.215-18.311 68.887-7.535 5.92 11.23-26.544 26.651-50.717 76.156-16.974 34.703-8.518 42.465-24.75 59.352-19.985 20.871-48.18 24.959-84.273 30.202-14.603 2.147-19.903 1.569-24.42-1.507Z"/><path fill="#9289FF" fill-opacity=".4" d="M70.21 1.606a78.238 78.238 0 0 0-45.549 26.93c-19.834 24.743-6.087 41.63-21.325 75.076-18.115 39.755-53.104 50.003-49.005 58.415 4.555 9.362 52.898 7.114 74.409-20.764 17.515-22.681.766-41.033 16.335-73.447 19.503-40.641 64.782-51.24 60.662-62.23-2.816-7.464-24.803-5.938-35.528-3.98Z"/><path fill="#fff" d="M-2.757 171a1.237 1.237 0 0 1-1.195-.887 1.259 1.259 0 0 1 .845-1.548c45.772-13.228 73.8-32.729 83.258-57.946a90.874 90.874 0 0 0 3.978-15.56c1.525-7.965 3.112-16.219 8.965-25.98 10.613-17.643 29.223-30.438 55.334-38.032a1.237 1.237 0 0 1 1.525.846 1.239 1.239 0 0 1-.845 1.527c-25.493 7.409-43.629 19.832-53.892 36.918-5.646 9.39-7.11 17.066-8.655 25.197a92.433 92.433 0 0 1-4.122 15.951c-9.748 26.001-38.311 45.997-84.887 59.473l-.309.041Z"/><path fill="#9289FF" fill-opacity=".4" d="M36.564 148.17c-45.44 16.124-72.293 25.728-71.549 35.95 1.115 13.799 53.373 32.679 87.123 14.17 20.51-11.25 20.552-28.793 55.026-54.541 17.37-12.978 28.731-16.988 27.781-19.559-2.004-5.409-54.819 8.494-98.38 23.98Z"/><path fill="#fff" d="M8.562 192.983a109.838 109.838 0 0 1-28.636-4.127 1.28 1.28 0 0 1-.89-1.527 1.242 1.242 0 0 1 1.532-.867c22.984 6.191 41.95 5.386 56.382-2.538 7.455-4.128 12.217-9.143 17.725-15.024a128.964 128.964 0 0 1 23.294-20.534 132.053 132.053 0 0 1 33.42-16.303 1.218 1.218 0 0 1 1.552.785 1.237 1.237 0 0 1-.786 1.547 130.67 130.67 0 0 0-32.799 15.994 126.983 126.983 0 0 0-22.88 20.183c-5.653 6.025-10.54 11.226-18.325 15.518a60.79 60.79 0 0 1-29.589 6.893ZM-32.377 158a.64.64 0 0 1-.598-.452.616.616 0 0 1 .413-.761c18.026-5.183 31.716-13.964 40.72-26.097 9.002-12.134 10.324-23.198 12.037-35.208.84-7.607 2.395-15.12 4.647-22.436 8.26-24.843 30.25-46.025 65.27-62.992a.641.641 0 0 1 .827.288.616.616 0 0 1-.29.823C55.96 27.967 34.197 48.923 26.02 73.436a119.967 119.967 0 0 0-4.605 22.21c-1.693 12.175-3.304 23.692-12.266 35.763-8.961 12.072-23.064 21.306-41.298 26.57l-.227.021Z"/><path fill="#fff" d="M62.616 26.985a.63.63 0 0 1-.272 0 .616.616 0 0 1-.314-.369.637.637 0 0 1 .043-.488l6.74-13.763a.639.639 0 0 1 .855-.3.696.696 0 0 1 .271.879l-6.76 13.762a.62.62 0 0 1-.563.28ZM50.599 37a.599.599 0 0 1-.594-.53.611.611 0 0 1 .436-.672l13.83-3.77a.539.539 0 0 1 .448.05.57.57 0 0 1 .263.377.634.634 0 0 1-.415.754l-13.83 3.77L50.6 37Zm-7.93 7h-.178a.663.663 0 0 1-.404-.298.606.606 0 0 1-.063-.483l6.667-23.733A.637.637 0 0 1 49 19.09a.697.697 0 0 1 .514-.067.65.65 0 0 1 .467.781l-6.667 23.754a.687.687 0 0 1-.644.443Zm-7.042 12a.581.581 0 0 1-.559-.338.555.555 0 0 1-.034-.457.585.585 0 0 1 .324-.337l12.754-5.815a.653.653 0 0 1 .827.277.585.585 0 0 1-.29.794L35.875 55.94l-.248.06Zm-7.184 10.98c-.271-.008-.498-.235-.534-.536L25.003 42.69c-.032-.335.18-.637.479-.68a.49.49 0 0 1 .411.106.614.614 0 0 1 .214.409l2.887 23.774a.674.674 0 0 1-.107.463.542.542 0 0 1-.37.238l-.074-.02ZM23.613 79a.6.6 0 0 1-.496-.267.613.613 0 0 1 .144-.862l12.764-8.763a.627.627 0 0 1 .867.164c.194.283.12.669-.165.862l-12.763 8.743a.56.56 0 0 1-.352.123ZM20.41 95.999a.6.6 0 0 1-.558-.406l-4.767-12.621a.68.68 0 0 1 .024-.7.58.58 0 0 1 .606-.26.62.62 0 0 1 .467.49l4.767 12.62a.662.662 0 0 1 .008.49.6.6 0 0 1-.327.344.432.432 0 0 1-.22.043Zm-.822 7a.596.596 0 0 1-.496-.254.603.603 0 0 1 .179-.823l13.89-8.87a.6.6 0 0 1 .745.219c.16.245.112.569-.111.76l-13.89 8.87a.477.477 0 0 1-.317.098ZM15.386 120a.641.641 0 0 1-.623-.489l-2.722-13.68a.604.604 0 0 1 .148-.658.632.632 0 0 1 .675-.126c.23.095.38.315.382.56l2.742 13.659a.612.612 0 0 1-.477.714l-.125.02Zm-4.771 8.998a.65.65 0 0 1-.55-.333.63.63 0 0 1 .264-.832l14.786-7.76a.577.577 0 0 1 .465-.043.594.594 0 0 1 .351.313c.152.3.044.668-.245.833l-14.724 7.76a.702.702 0 0 1-.347.062Z"/></svg>
